Numix-GalliumOS/16/mimetypes/application-x-desktop.svg

<?xml version="1.0" encoding="UTF-8" standalone="no"?>
<svg
   xmlns:dc="http://purl.org/dc/elements/1.1/"
   xmlns:cc="http://creativecommons.org/ns#"
   xmlns:rdf="http://www.w3.org/1999/02/22-rdf-syntax-ns#"
   xmlns:svg="http://www.w3.org/2000/svg"
   xmlns="http://www.w3.org/2000/svg"
   xmlns:sodipodi="http://sodipodi.sourceforge.net/DTD/sodipodi-0.dtd"
   xmlns:inkscape="http://www.inkscape.org/namespaces/inkscape"
   width="16"
   height="16"
   viewBox="0 0 16 16"
   id="svg2"
   version="1.1"
   inkscape:version="0.48.5 r10040"
   sodipodi:docname="application-x-desktop.svg">
  <metadata
     id="metadata16">
    <rdf:RDF>
      <cc:Work
         rdf:about="">
        <dc:format>image/svg+xml</dc:format>
        <dc:type
           rdf:resource="http://purl.org/dc/dcmitype/StillImage" />
      </cc:Work>
    </rdf:RDF>
  </metadata>
  <defs
     id="defs14" />
  <sodipodi:namedview
     pagecolor="#ffffff"
     bordercolor="#666666"
     borderopacity="1"
     objecttolerance="10"
     gridtolerance="10"
     guidetolerance="10"
     inkscape:pageopacity="0"
     inkscape:pageshadow="2"
     inkscape:window-width="1280"
     inkscape:window-height="970"
     id="namedview12"
     showgrid="true"
     inkscape:zoom="20.85965"
     inkscape:cx="2.2031943"
     inkscape:cy="12.827246"
     inkscape:window-x="0"
     inkscape:window-y="0"
     inkscape:window-maximized="1"
     inkscape:current-layer="svg2">
    <inkscape:grid
       type="xygrid"
       id="grid3004" />
  </sodipodi:namedview>
  <path
     style="fill:#dcdcdc;fill-opacity:1"
     d="M 2.767969,-4.46e-4 C 2.424219,-4.46e-4 2.1,0.337812 2.1,0.6964467 l 0,14.6066613 C 2.1,15.641365 2.44375,16 2.767969,16 l 10.664062,0 C 13.75625,16 14.1,15.641365 14.1,15.303108 l 0,-11.3035542 -4,-3.9999998 z"
     id="path4"
     inkscape:connector-curvature="0"
     sodipodi:nodetypes="ssssssccs" />
  <path
     style="fill:#888888"
     d="M 7.7500078,4.2932978 C 7.0129599,4.5260491 7.6594924,5.6251555 6.6077987,6.1639338 5.4009371,6.7759845 4.8018163,5.2286153 4.0776993,6.3320316 3.3535824,7.4397589 5.0776704,7.2673501 5.0259488,8.569036 4.9785361,9.8750329 3.271689,9.5948678 3.9139115,10.745697 c 0.6379126,1.150829 1.3490986,-0.357749 2.5085475,0.327576 1.15514,0.689636 0.051724,1.965461 1.4137521,2.004252 1.3663405,0.0431 0.3534386,-1.293064 1.5559902,-1.905116 C 10.599063,10.556047 11.198184,12.107726 11.922301,11 12.646418,9.8922738 10.92233,10.064683 10.974051,8.7629956 11.021464,7.4613097 12.728311,7.7371638 12.086088,6.5863348 11.448176,5.4398169 10.73699,6.9483933 9.577541,6.2587581 8.422401,5.5691229 9.5258173,4.2976078 8.1637889,4.2545061 7.9913801,4.2501951 7.857763,4.2588161 7.7500078,4.2932978 z m 0.01724,3.3145589 C 8.3749894,7.4828606 8.9741091,7.85785 9.1034163,8.4440399 9.2327234,9.0259198 8.8448031,9.5991788 8.2327524,9.7241749 7.6250106,9.849171 7.0258909,9.4784926 6.8965837,8.8923027 6.7672766,8.3061128 7.1551969,7.7328528 7.7672476,7.6078567 z"
     id="path10"
     inkscape:connector-curvature="0" />
  <path
     style="fill:#000000;fill-opacity:0.19599998"
     d="m 10.683223,3.3315848 0.0154,0.01953 0.04005,-0.01953 z m 0.02978,0.667969 3.387,3.664062 0,-3.664062 z"
     id="path6"
     inkscape:connector-curvature="0"
     sodipodi:nodetypes="cccccccc" />
  <path
     style="fill:#ffffff;fill-opacity:0.39200003"
     d="m 10.1,-4.46e-4 3.996396,3.9999998 -3.383784,0 C 10.413513,3.9995538 10.1,3.6824368 10.1,3.3833378 z"
     id="path8"
     inkscape:connector-curvature="0"
     sodipodi:nodetypes="ccssc" />
</svg>

<svg xmlns="http://www.w3.org/2000/svg" viewBox="0 0 16 16">
 <path d="m 2.768 0 c -0.344 0 -0.668 0.338 -0.668 0.697 l 0 14.607 c 0 0.338 0.344 0.697 0.668 0.697 l 10.664 0 c 0.324 0 0.668 -0.359 0.668 -0.697 l 0 -11.304 -4 -4 z" style="fill:#dcdcdc;fill-opacity:1"/>
 <path d="m 7.75 4.293 c -0.737 0.233 -0.091 1.332 -1.142 1.871 -1.207 0.612 -1.806 -0.935 -2.53 0.168 -0.724 1.108 1 0.935 0.948 2.237 -0.047 1.306 -1.754 1.026 -1.112 2.177 c 0.638 1.151 1.349 -0.358 2.509 0.328 1.155 0.69 0.052 1.965 1.414 2 1.366 0.043 0.353 -1.293 1.556 -1.905 c 1.207 -0.616 1.806 0.935 2.53 -0.172 0.724 -1.108 -1 -0.935 -0.948 -2.237 0.047 -1.302 1.754 -1.026 1.112 -2.177 -0.638 -1.147 -1.349 0.362 -2.509 -0.328 -1.155 -0.69 -0.052 -1.961 -1.414 -2 -0.172 -0.004 -0.306 0.004 -0.414 0.039 z m 0.017 3.315 c 0.608 -0.125 1.207 0.25 1.336 0.836 0.129 0.582 -0.259 1.155 -0.871 1.28 -0.608 0.125 -1.207 -0.246 -1.336 -0.832 -0.129 -0.586 0.259 -1.159 0.871 -1.284 z" style="fill:#888"/>
 <path d="m 10.683 3.332 0.015 0.02 0.04 -0.02 z m 0.03 0.668 3.387 3.664 0 -3.664 z" style="fill:#000;fill-opacity:0.196"/>
 <path d="m 10.1 0 3.996 4 -3.384 0 c -0.299 0 -0.613 -0.317 -0.613 -0.616 z" style="fill:#fff;fill-opacity:0.392"/>
</svg>
